X:826
T:Asturies, Patria Querida (XA 12)
R:Xiraldilla
C:Tradicional
S:Música Tradicional Asturiana, (C) Tello & Tito. Asturies, 2001.
S:http://pagina.de/MusTradAst <telloytito@asturies.org>
A:Asturies
G:Arrg.
Z:Métodu de Xuacu Amieva 12
E:2 Voces
M:2/4
L:1/8
Q:1/4=84
K:C
V:1
|: C4|E4|E4|F2 EF|G2 A2|{BA}G4-|G4|G4|A4|F4|A2 GF|G2 GF|E4-|E4 :|
|: C2 CC|A2 ~AG|A2 A2|B2 BA|G2 EF|G4|A2 ~AG|F2 DE|F2 F2|G2 GG|A2 ~GF|[1 E4 :|[2 E4-|E4|
|: C4|E4|E4|F2 EF|G2 A2|{BA}G4-|G4|G4|A4|F4|A2 GF|G2 GF|E4-|E4 :|
|: C2 CC|A2 ~AG|A2 A2|B2 BA|G2 EF|G4|A2 ~AG|F2 DE|F2 F2|G2 GG|[1 A2 ~GF|E4 :|[2 A2 GB|c4-|c4|
V:2
|: G4|C4|C4|D2 CD|E2 F2|E4-|E4|E4|F4|D4|F2 ED|E2 ED|C4-|C4 :|
|: C2 CC|F2 ~FE|F2 F2|G2 GF|E2 CD|E4|F2 ~FE|D2 B,C|D2 D2|E2 EE|F2 ~ED|[1 C4 :|[2 C4-|C4|
|: G4|C4|C4|D2 CD|E2 F2|E4-|E4|E4|F4|D4|F2 ED|E2 ED|C4-|C4 :|
|: C2 CC|F2 ~FE|F2 F2|G2 GF|E2 CD|E4|F2 ~FE|D2 B,C|D2 D2|E2 EE|F2 ~ED|[1 C4 :|[2 C4-|C4||


